src/ipa/rpi/vc4/data/ov5647.json
{
    "version": 2.0,
    "target": "bcm2835",
    "algorithms": [
        {
            "rpi.black_level":
            {
                "black_level": 1024
            }
        },
        {
            "rpi.dpc": { }
        },
        {
            "rpi.lux":
            {
                "reference_shutter_speed": 21663,
                "reference_gain": 1.0,
                "reference_aperture": 1.0,
                "reference_lux": 987,
                "reference_Y": 8961
            }
        },
        {
            "rpi.noise":
            {
                "reference_constant": 0,
                "reference_slope": 4.25
            }
        },
        {
            "rpi.geq":
            {
                "offset": 401,
                "slope": 0.05619
            }
        },
        {
            "rpi.sdn": { }
        },
        {
            "rpi.awb":
            {
                "enabled": true,
                "priors": [
                    {
                        "lux": 0,
                        "prior":
                        [
                            2000, 1.0,
                            3000, 0.0,
                            13000, 0.0
                        ]
                    },
                    {
                        "lux": 800,
                        "prior":
                        [
                            2000, 0.0,
                            6000, 2.0,
                            13000, 2.0
                        ]
                    },
                    {
                        "lux": 1500,
                        "prior":
                        [
                            2000, 0.0,
                            4000, 1.0,
                            6000, 6.0,
                            6500, 7.0,
                            7000, 1.0,
                            13000, 1.0
                        ]
                    }
                ],
                "modes":
                {
                    "auto":
                    {
                        "lo": 2500,
                        "hi": 8000
                    },
                    "incandescent":
                    {
                        "lo": 2500,
                        "hi": 3000
                    },
                    "tungsten":
                    {
                        "lo": 3000,
                        "hi": 3500
                    },
                    "fluorescent":
                    {
                        "lo": 4000,
                        "hi": 4700
                    },
                    "indoor":
                    {
                        "lo": 3000,
                        "hi": 5000
                    },
                    "daylight":
                    {
                        "lo": 5500,
                        "hi": 6500
                    },
                    "cloudy":
                    {
                        "lo": 7000,
                        "hi": 8600
                    }
                },
                "bayes": 1,
                "ct_curve":
                [
                    2500.0, 1.0289, 0.4503,
                    2803.0, 0.9428, 0.5108,
                    2914.0, 0.9406, 0.5127,
                    3605.0, 0.8261, 0.6249,
                    4540.0, 0.7331, 0.7533,
                    5699.0, 0.6715, 0.8627,
                    8625.0, 0.6081, 1.0012
                ],
                "sensitivity_r": 1.05,
                "sensitivity_b": 1.05,
                "transverse_pos": 0.0321,
                "transverse_neg": 0.04313
            }
        },
        {
            "rpi.nn.awb":
            {
                "enabled": false,
                "modes":
                {
                    "auto":
                    {
                        "lo": 2500,
                        "hi": 8000
                    },
                    "incandescent":
                    {
                        "lo": 2500,
                        "hi": 3000
                    },
                    "tungsten":
                    {
                        "lo": 3000,
                        "hi": 3500
                    },
                    "fluorescent":
                    {
                        "lo": 4000,
                        "hi": 4700
                    },
                    "indoor":
                    {
                        "lo": 3000,
                        "hi": 5000
                    },
                    "daylight":
                    {
                        "lo": 5500,
                        "hi": 6500
                    },
                    "cloudy":
                    {
                        "lo": 7000,
                        "hi": 8600
                    }
                },
                "ct_curve":
                [
                    2873.0, 1.0463, 0.5142,
                    2965.0, 1.0233, 0.5284,
                    3606.0, 0.8947, 0.6314,
                    4700.0, 0.7665, 0.7897,
                    5890.0, 0.7055, 0.8933,
                    7600.0, 0.6482, 1.0119
                ],
                "sensitivity_r": 1.05,
                "sensitivity_b": 1.05,
                "transverse_pos": 0.04072,
                "transverse_neg": 0.03906,
                "ccm":
                [
                    2.041588151260504, -0.5494553781512606, -0.49214025210084034,
                    -0.5116488235294118, 1.9901442857142857, -0.47849546218487393,
                    -0.10519773109243696, -0.641700168067227, 1.7468953781512604
                ],
                "enable_nn": 1
            }
        },
        {
            "rpi.agc":
            {
                "channels": [
                    {
                        "metering_modes":
                        {
                            "centre-weighted":
                            {
                                "weights":
                                [
                                    3, 3, 3, 2, 2, 2, 2, 1, 1, 1, 1, 0, 0, 0, 0
                                ]
                            },
                            "spot":
                            {
                                "weights":
                                [
                                    2, 1, 1, 0, 0, 0, 0, 0, 0, 0, 0, 0, 0, 0, 0
                                ]
                            },
                            "matrix":
                            {
                                "weights":
                                [
                                    1, 1, 1, 1, 1, 1, 1, 1, 1, 1, 1, 1, 1, 1, 1
                                ]
                            }
                        },
                        "exposure_modes":
                        {
                            "normal":
                            {
                                "shutter": [ 100, 10000, 30000, 60000, 66666 ],
                                "gain": [ 1.0, 2.0, 4.0, 6.0, 8.0 ]
                            },
                            "short":
                            {
                                "shutter": [ 100, 5000, 10000, 20000, 66666 ],
                                "gain": [ 1.0, 2.0, 4.0, 6.0, 8.0 ]
                            },
                            "long":
                            {
                                "shutter": [ 100, 10000, 30000, 60000, 120000 ],
                                "gain": [ 1.0, 2.0, 4.0, 6.0, 8.0 ]
                            }
                        },
                        "constraint_modes":
                        {
                            "normal": [
                                {
                                    "bound": "LOWER",
                                    "q_lo": 0.98,
                                    "q_hi": 1.0,
                                    "y_target":
                                    [
                                        0, 0.5,
                                        1000, 0.5
                                    ]
                                }
                            ],
                            "highlight": [
                                {
                                    "bound": "LOWER",
                                    "q_lo": 0.98,
                                    "q_hi": 1.0,
                                    "y_target":
                                    [
                                        0, 0.5,
                                        1000, 0.5
                                    ]
                                },
                                {
                                    "bound": "UPPER",
                                    "q_lo": 0.98,
                                    "q_hi": 1.0,
                                    "y_target":
                                    [
                                        0, 0.8,
                                        1000, 0.8
                                    ]
                                }
                            ],
                            "shadows": [
                                {
                                    "bound": "LOWER",
                                    "q_lo": 0.0,
                                    "q_hi": 0.5,
                                    "y_target":
                                    [
                                        0, 0.17,
                                        1000, 0.17
                                    ]
                                }
                            ]
                        },
                        "y_target":
                        [
                            0, 0.16,
                            1000, 0.165,
                            10000, 0.17
                        ],
                        "base_ev": 1.25
                    },
                    {
                        "base_ev": 1.25,
                        "metering_modes":
                        {
                            "centre-weighted":
                            {
                                "weights":
                                [
                                    3, 3, 3, 2, 2, 2, 2, 1, 1, 1, 1, 0, 0, 0, 0
                                ]
                            },
                            "spot":
                            {
                                "weights":
                                [
                                    2, 1, 1, 0, 0, 0, 0, 0, 0, 0, 0, 0, 0, 0, 0
                                ]
                            },
                            "matrix":
                            {
                                "weights":
                                [
                                    1, 1, 1, 1, 1, 1, 1, 1, 1, 1, 1, 1, 1, 1, 1
                                ]
                            }
                        },
                        "exposure_modes":
                        {
                            "normal":
                            {
                                "shutter": [ 100, 10000, 30000, 60000, 66666 ],
                                "gain": [ 1.0, 2.0, 4.0, 6.0, 8.0 ]
                            },
                            "short":
                            {
                                "shutter": [ 100, 5000, 10000, 20000, 33333 ],
                                "gain": [ 1.0, 2.0, 4.0, 6.0, 8.0 ]
                            },
                            "long":
                            {
                                "shutter": [ 100, 10000, 30000, 60000, 120000 ],
                                "gain": [ 1.0, 2.0, 4.0, 6.0, 12.0 ]
                            }
                        },
                        "constraint_modes":
                        {
                            "normal": [
                                {
                                    "bound": "LOWER",
                                    "q_lo": 0.98,
                                    "q_hi": 1.0,
                                    "y_target":
                                    [
                                        0, 0.5,
                                        1000, 0.5
                                    ]
                                }
                            ],
                            "highlight": [
                                {
                                    "bound": "LOWER",
                                    "q_lo": 0.98,
                                    "q_hi": 1.0,
                                    "y_target":
                                    [
                                        0, 0.5,
                                        1000, 0.5
                                    ]
                                },
                                {
                                    "bound": "UPPER",
                                    "q_lo": 0.98,
                                    "q_hi": 1.0,
                                    "y_target":
                                    [
                                        0, 0.8,
                                        1000, 0.8
                                    ]
                                }
                            ],
                            "shadows": [
                                {
                                    "bound": "LOWER",
                                    "q_lo": 0.0,
                                    "q_hi": 0.5,
                                    "y_target":
                                    [
                                        0, 0.17,
                                        1000, 0.17
                                    ]
                                }
                            ]
                        },
                        "y_target":
                        [
                            0, 0.16,
                            1000, 0.165,
                            10000, 0.17
                        ]
                    },
                    {
                        "base_ev": 1.25,
                        "metering_modes":
                        {
                            "centre-weighted":
                            {
                                "weights":
                                [
                                    3, 3, 3, 2, 2, 2, 2, 1, 1, 1, 1, 0, 0, 0, 0
                                ]
                            },
                            "spot":
                            {
                                "weights":
                                [
                                    2, 1, 1, 0, 0, 0, 0, 0, 0, 0, 0, 0, 0, 0, 0
                                ]
                            },
                            "matrix":
                            {
                                "weights":
                                [
                                    1, 1, 1, 1, 1, 1, 1, 1, 1, 1, 1, 1, 1, 1, 1
                                ]
                            }
                        },
                        "exposure_modes":
                        {
                            "normal":
                            {
                                "shutter": [ 100, 10000, 30000, 60000, 66666 ],
                                "gain": [ 1.0, 2.0, 4.0, 6.0, 8.0 ]
                            },
                            "short":
                            {
                                "shutter": [ 100, 5000, 10000, 20000, 33333 ],
                                "gain": [ 1.0, 2.0, 4.0, 6.0, 8.0 ]
                            },
                            "long":
                            {
                                "shutter": [ 100, 10000, 30000, 60000, 120000 ],
                                "gain": [ 1.0, 2.0, 4.0, 6.0, 12.0 ]
                            }
                        },
                        "constraint_modes":
                        {
                            "normal": [
                                {
                                    "bound": "LOWER",
                                    "q_lo": 0.98,
                                    "q_hi": 1.0,
                                    "y_target":
                                    [
                                        0, 0.5,
                                        1000, 0.5
                                    ]
                                }
                            ],
                            "highlight": [
                                {
                                    "bound": "LOWER",
                                    "q_lo": 0.98,
                                    "q_hi": 1.0,
                                    "y_target":
                                    [
                                        0, 0.5,
                                        1000, 0.5
                                    ]
                                },
                                {
                                    "bound": "UPPER",
                                    "q_lo": 0.98,
                                    "q_hi": 1.0,
                                    "y_target":
                                    [
                                        0, 0.8,
                                        1000, 0.8
                                    ]
                                }
                            ],
                            "shadows": [
                                {
                                    "bound": "LOWER",
                                    "q_lo": 0.0,
                                    "q_hi": 0.5,
                                    "y_target":
                                    [
                                        0, 0.17,
                                        1000, 0.17
                                    ]
                                }
                            ]
                        },
                        "y_target":
                        [
                            0, 0.16,
                            1000, 0.165,
                            10000, 0.17
                        ]
                    }
                ]
            }
        },
        {
            "rpi.alsc":
            {
                "omega": 1.3,
                "n_iter": 100,
                "luminance_strength": 0.5,
                "calibrations_Cr": [
                    {
                        "ct": 3000,
                        "table":
                        [
                            1.105, 1.103, 1.093, 1.083, 1.071, 1.065, 1.065, 1.065, 1.066, 1.069, 1.072, 1.077, 1.084, 1.089, 1.093, 1.093,
                            1.103, 1.096, 1.084, 1.072, 1.059, 1.051, 1.047, 1.047, 1.051, 1.053, 1.059, 1.067, 1.075, 1.082, 1.085, 1.086,
                            1.096, 1.084, 1.072, 1.059, 1.051, 1.045, 1.039, 1.038, 1.039, 1.045, 1.049, 1.057, 1.063, 1.072, 1.081, 1.082,
                            1.092, 1.075, 1.061, 1.052, 1.045, 1.039, 1.036, 1.035, 1.035, 1.039, 1.044, 1.049, 1.056, 1.063, 1.072, 1.081,
                            1.092, 1.073, 1.058, 1.048, 1.043, 1.038, 1.035, 1.033, 1.033, 1.035, 1.039, 1.044, 1.051, 1.057, 1.069, 1.078,
                            1.091, 1.068, 1.054, 1.045, 1.041, 1.038, 1.035, 1.032, 1.032, 1.032, 1.036, 1.041, 1.045, 1.055, 1.069, 1.078,
                            1.091, 1.068, 1.052, 1.043, 1.041, 1.038, 1.035, 1.032, 1.031, 1.032, 1.034, 1.036, 1.043, 1.055, 1.069, 1.078,
                            1.092, 1.068, 1.052, 1.047, 1.042, 1.041, 1.038, 1.035, 1.032, 1.032, 1.035, 1.039, 1.043, 1.055, 1.071, 1.079,
                            1.092, 1.073, 1.057, 1.051, 1.047, 1.047, 1.044, 1.041, 1.038, 1.038, 1.039, 1.043, 1.051, 1.059, 1.076, 1.083,
                            1.092, 1.081, 1.068, 1.058, 1.056, 1.056, 1.053, 1.052, 1.049, 1.048, 1.048, 1.051, 1.059, 1.066, 1.083, 1.085,
                            1.091, 1.087, 1.081, 1.068, 1.065, 1.064, 1.062, 1.062, 1.061, 1.056, 1.056, 1.056, 1.064, 1.069, 1.084, 1.089,
                            1.091, 1.089, 1.085, 1.079, 1.069, 1.068, 1.067, 1.067, 1.067, 1.063, 1.061, 1.063, 1.068, 1.069, 1.081, 1.092
                        ]
                    },
                    {
                        "ct": 5000,
                        "table":
                        [
                            1.486, 1.484, 1.468, 1.449, 1.427, 1.403, 1.399, 1.399, 1.399, 1.404, 1.413, 1.433, 1.454, 1.473, 1.482, 1.488,
                            1.484, 1.472, 1.454, 1.431, 1.405, 1.381, 1.365, 1.365, 1.367, 1.373, 1.392, 1.411, 1.438, 1.458, 1.476, 1.481,
                            1.476, 1.458, 1.433, 1.405, 1.381, 1.361, 1.339, 1.334, 1.334, 1.346, 1.362, 1.391, 1.411, 1.438, 1.462, 1.474,
                            1.471, 1.443, 1.417, 1.388, 1.361, 1.339, 1.321, 1.313, 1.313, 1.327, 1.346, 1.362, 1.391, 1.422, 1.453, 1.473,
                            1.469, 1.439, 1.408, 1.377, 1.349, 1.321, 1.312, 1.299, 1.299, 1.311, 1.327, 1.348, 1.378, 1.415, 1.446, 1.468,
                            1.468, 1.434, 1.402, 1.371, 1.341, 1.316, 1.299, 1.296, 1.295, 1.299, 1.314, 1.338, 1.371, 1.408, 1.441, 1.466,
                            1.468, 1.434, 1.401, 1.371, 1.341, 1.316, 1.301, 1.296, 1.295, 1.297, 1.314, 1.338, 1.369, 1.408, 1.441, 1.465,
                            1.469, 1.436, 1.401, 1.374, 1.348, 1.332, 1.315, 1.301, 1.301, 1.313, 1.324, 1.342, 1.372, 1.409, 1.442, 1.465,
                            1.471, 1.444, 1.413, 1.388, 1.371, 1.348, 1.332, 1.323, 1.323, 1.324, 1.342, 1.362, 1.386, 1.418, 1.449, 1.467,
                            1.473, 1.454, 1.431, 1.407, 1.388, 1.371, 1.359, 1.352, 1.351, 1.351, 1.362, 1.383, 1.404, 1.433, 1.462, 1.472,
                            1.474, 1.461, 1.447, 1.424, 1.407, 1.394, 1.385, 1.381, 1.379, 1.381, 1.383, 1.401, 1.419, 1.444, 1.466, 1.481,
                            1.474, 1.464, 1.455, 1.442, 1.421, 1.408, 1.403, 1.403, 1.403, 1.399, 1.402, 1.415, 1.432, 1.446, 1.467, 1.483
                        ]
                    },
                    {
                        "ct": 6500,
                        "table":
                        [
                            1.567, 1.565, 1.555, 1.541, 1.525, 1.518, 1.518, 1.518, 1.521, 1.527, 1.532, 1.541, 1.551, 1.559, 1.567, 1.569,
                            1.565, 1.557, 1.542, 1.527, 1.519, 1.515, 1.511, 1.516, 1.519, 1.524, 1.528, 1.533, 1.542, 1.553, 1.559, 1.562,
                            1.561, 1.546, 1.532, 1.521, 1.518, 1.515, 1.511, 1.516, 1.519, 1.524, 1.528, 1.529, 1.533, 1.542, 1.554, 1.559,
                            1.561, 1.539, 1.526, 1.524, 1.521, 1.521, 1.522, 1.524, 1.525, 1.531, 1.529, 1.529, 1.531, 1.538, 1.549, 1.558,
                            1.559, 1.538, 1.526, 1.525, 1.524, 1.528, 1.534, 1.536, 1.536, 1.536, 1.532, 1.529, 1.531, 1.537, 1.548, 1.556,
                            1.561, 1.537, 1.525, 1.524, 1.526, 1.532, 1.537, 1.539, 1.538, 1.537, 1.532, 1.529, 1.529, 1.537, 1.546, 1.556,
                            1.561, 1.536, 1.524, 1.522, 1.525, 1.532, 1.538, 1.538, 1.537, 1.533, 1.528, 1.526, 1.527, 1.536, 1.546, 1.555,
                            1.561, 1.537, 1.522, 1.521, 1.524, 1.531, 1.536, 1.537, 1.534, 1.529, 1.526, 1.522, 1.523, 1.534, 1.547, 1.555,
                            1.561, 1.538, 1.524, 1.522, 1.526, 1.531, 1.535, 1.535, 1.534, 1.527, 1.524, 1.522, 1.522, 1.535, 1.549, 1.556,
                            1.558, 1.543, 1.532, 1.526, 1.526, 1.529, 1.534, 1.535, 1.533, 1.526, 1.523, 1.522, 1.524, 1.537, 1.552, 1.557,
                            1.555, 1.546, 1.541, 1.528, 1.527, 1.528, 1.531, 1.533, 1.531, 1.527, 1.522, 1.522, 1.526, 1.536, 1.552, 1.561,
                            1.555, 1.547, 1.542, 1.538, 1.526, 1.526, 1.529, 1.531, 1.529, 1.528, 1.519, 1.519, 1.527, 1.531, 1.543, 1.561
